X: 1
T: Stoney Steps
R: reel
M: 4/4
L: 1/8
K: Dmaj
|:dB | ~A2AB AF~F2 | ABdf edBA | FA~A2 BAGF | GFEG FD :|
de | fedc defg |afbf afeg | fded fded | BdAF E2de |
fedc defg | afbf afeg | ~f2fa e2de | fgaf ef |


Tune 571	Setting 13549

